offer/images/tiny/statistics.svg

<svg height="45" viewBox="0 0 42 45" width="42" xmlns="http://www.w3.org/2000/svg"><g fill="none"><path d="m41.8485026 12.2967596-7.2164561-11.794445c-.1910772-.31186551-.5332865-.5023146-.9026748-.5023146-.3693884 0-.7120095.19044909-.9026747.5023146l-7.2164564 11.794445c-.1964305.3207991-.2021957.721595-.0156485 1.0480792.1869591.3264842.5378163.5287095.9183233.5287095h1.8687673v5.6152034h-8.0758915c-.5822911 0-1.0542187.4653619-1.0542187 1.0395517v3.6384309h-8.0713617c-.582291 0-1.0542187.4653619-1.0542187 1.0395517v3.638431h-8.07177343c-.58229115 0-1.05421867.4653618-1.05421867 1.0395517v14.0761796c0 .5741899.47192752 1.0395517 1.05421867 1.0395517h35.96821143c.5822911 0 1.0542187-.4653618 1.0542187-1.0395517v-30.0869h1.8691791c.3800952 0 .7309524-.2022253.9179115-.5287095s.1811939-.7268741-.0152368-1.0480792zm-38.74006526 18.6270607h7.01755476v11.9970763h-7.01755476zm9.12599216-4.6779826h7.017143v16.6750589h-7.017143zm9.1255803-4.6779826h7.0220847v21.3530415h-7.0220847zm16.6624203-9.7734102c-.5818793 0-1.0542186.4653618-1.0542186 1.0395517v30.0869h-6.4776796v-29.0473483h1.9017117c.582291 0 1.0542186-.4657678 1.0542186-1.0395517 0-.5741899-.4719276-1.0395517-1.0542186-1.0395517h-4.0122081l5.3493362-8.7423861 5.3493361 8.7423861z" fill="#828282"/><path d="m22.170257 7.81154741c-.0714712-.31596124-.29299-.58194901-.598101-.71695799-.3046929-.13541196-.6578692-.1249336-.954203.02821088l-3.3236192 1.72408446c-.5203605.26961485-.7151299.89549213-.4355145 1.39724174.2800332.5017498.9287074.6899562 1.4494858.4199384l.6674824-.3465902c-1.8076777 3.7455915-6.3927006 7.6805985-12.21822945 10.433975-1.97026427.9309573-3.9819065 1.6793502-5.97850218 2.2238191-.56842582.1551595-.89903233.7250182-.73853563 1.2735172.13332932.4541943.56257443.751214 1.02901797.751214.09654872 0 .19476939-.0128964.29215418-.0394952 2.11989395-.5779189 4.25232665-1.3706431 6.33794781-2.3564098 6.1201907-2.8924157 11.0028014-7.0881714 13.0976177-11.181562l.0869357.3844733c.1090876.4824051.5521254.8120687 1.0444825.8120687.0756508 0 .1521374-.0080603.2290421-.0241808.577203-.1213065.9433361-.6710146.8175302-1.2279768z" fill="#a03ee5"/></g></svg>

<?xml version="1.0" encoding="UTF-8"?>
<svg width="42px" height="45px" viewBox="0 0 42 45" version="1.1" xmlns="http://www.w3.org/2000/svg" xmlns:xlink="http://www.w3.org/1999/xlink">
    <!-- Generator: Sketch 52.2 (67145) - http://www.bohemiancoding.com/sketch -->
    <title>statistics</title>
    <desc>Created with Sketch.</desc>
    <g id="Page-1" stroke="none" stroke-width="1" fill="none" fill-rule="evenodd">
        <g id="home" transform="translate(-193.000000, -1159.000000)" fill-rule="nonzero">
            <g id="Group-3" transform="translate(174.000000, 1140.000000)">
                <g id="statistics" transform="translate(19.000000, 19.000000)">
                    <path d="M41.8485026,12.2967596 L34.6320465,0.502314601 C34.4409693,0.190449093 34.09876,0 33.7293717,0 C33.3599833,0 33.0173622,0.190449093 32.826697,0.502314601 L25.6102406,12.2967596 C25.4138101,12.6175587 25.4080449,13.0183546 25.5945921,13.3448388 C25.7815512,13.671323 26.1324084,13.8735483 26.5129154,13.8735483 L28.3816827,13.8735483 L28.3816827,19.4887517 L20.3057912,19.4887517 C19.7235001,19.4887517 19.2515725,19.9541136 19.2515725,20.5283034 L19.2515725,24.1667343 L11.1802108,24.1667343 C10.5979198,24.1667343 10.1259921,24.6320962 10.1259921,25.206286 L10.1259921,28.844717 L2.05421867,28.844717 C1.47192752,28.844717 1,29.3100788 1,29.8842687 L1,43.9604483 C1,44.5346382 1.47192752,45 2.05421867,45 L38.0224301,45 C38.6047212,45 39.0766488,44.5346382 39.0766488,43.9604483 L39.0766488,13.8735483 L40.9458279,13.8735483 C41.3259231,13.8735483 41.6767803,13.671323 41.8637394,13.3448388 C42.0506985,13.0183546 42.0449333,12.6179647 41.8485026,12.2967596 Z M3.10843734,30.9238203 L10.1259921,30.9238203 L10.1259921,42.9208966 L3.10843734,42.9208966 L3.10843734,30.9238203 Z M12.2344295,26.2458377 L19.2515725,26.2458377 L19.2515725,42.9208966 L12.2344295,42.9208966 L12.2344295,26.2458377 Z M21.3600098,21.5678551 L28.3820945,21.5678551 L28.3820945,42.9208966 L21.3600098,42.9208966 L21.3600098,21.5678551 Z M38.0224301,11.7944449 C37.4405508,11.7944449 36.9682115,12.2598067 36.9682115,12.8339966 L36.9682115,42.9208966 L30.4905319,42.9208966 L30.4905319,13.8735483 L32.3922436,13.8735483 C32.9745346,13.8735483 33.4464622,13.4077805 33.4464622,12.8339966 C33.4464622,12.2598067 32.9745346,11.7944449 32.3922436,11.7944449 L28.3800355,11.7944449 L33.7293717,3.0520588 L39.0787078,11.7944449 L38.0224301,11.7944449 Z" id="Shape" fill="#828282"></path>
                    <path d="M22.170257,7.81154741 C22.0987858,7.49558617 21.877267,7.2295984 21.572156,7.09458942 C21.2674631,6.95917746 20.9142868,6.96965582 20.617953,7.1228003 L17.2943338,8.84688476 C16.7739733,9.11649961 16.5792039,9.74237689 16.8588193,10.2441265 C17.1388525,10.7458763 17.7875267,10.9340827 18.3083051,10.6640649 L18.9757875,10.3174747 C17.1681098,14.0630662 12.5830869,17.9980732 6.75755805,20.7514497 C4.78729378,21.682407 2.77565155,22.4307999 0.779055874,22.9752688 C0.210630052,23.1304283 -0.119976464,23.700287 0.0405202388,24.248786 C0.173849558,24.7029803 0.603094672,25 1.06953821,25 C1.16608693,25 1.2643076,24.9871036 1.36169239,24.9605048 C3.48158634,24.3825859 5.61401904,23.5898617 7.6996402,22.604095 C13.8198309,19.7116793 18.7024416,15.5159236 20.7972579,11.422533 L20.8841936,11.8070063 C20.9932812,12.2894114 21.436319,12.619075 21.9286761,12.619075 C22.0043269,12.619075 22.0808135,12.6110147 22.1577182,12.5948942 C22.7349212,12.4735877 23.1010543,11.9238796 22.9752484,11.3669174 L22.170257,7.81154741 Z" id="Shape" fill="#A03EE5"></path>
                </g>
            </g>
        </g>
    </g>
</svg>
